docs/img/svg/send.svg

<svg xmlns="http://www.w3.org/2000/svg" preserveAspectRatio="xMidYMid" width="28" height="22" viewBox="0 0 28 22"><defs><style>.cls-1{fill:#fff;fill-rule:evenodd}</style></defs><path d="M27.35.403a1.73 1.73 0 0 0-1.848-.237L.896 11.654a1.547 1.547 0 0 0-.889 1.564 1.537 1.537 0 0 0 1.158 1.37l4.903 1.245 2.887 5.354a1.528 1.528 0 0 0 2.387.404l2.8-2.593.05-.05 7.687 2.459c.408.131.855.082 1.226-.133.372-.216.64-.582.736-1.005l4.113-18.078A1.793 1.793 0 0 0 27.35.403zM6.88 14.172l-4.603-1.169 16.7-7.797-11.838 9.079a.88.88 0 0 0-.259-.113zm3.49 5.867l-2.276-4.221a.923.923 0 0 0 .064-.045L21.383 5.632 11.159 16.614a.914.914 0 0 0-.215.85.9.9 0 0 0 .595.636l.687.22-1.856 1.719zm11.792-.441l-8.727-2.791L25.824 3.498l-3.662 16.1z" class="cls-1"/></svg>

<svg xmlns="http://www.w3.org/2000/svg" xmlns:xlink="http://www.w3.org/1999/xlink" preserveAspectRatio="xMidYMid" width="28" height="22" viewBox="0 0 28 22">
  <defs>
    <style>
      .cls-1 {
        fill: #fff;
        fill-rule: evenodd;
      }
    </style>
  </defs>
  <path d="M27.350,0.403 C26.825,-0.030 26.117,-0.121 25.502,0.166 L0.896,11.654 C0.294,11.935 -0.055,12.549 0.007,13.218 C0.068,13.887 0.523,14.425 1.165,14.588 L6.068,15.833 L8.955,21.187 C9.183,21.611 9.583,21.899 10.052,21.978 C10.137,21.993 10.223,22.000 10.308,22.000 C10.688,22.000 11.055,21.857 11.342,21.591 L14.142,18.998 C14.159,18.982 14.176,18.965 14.192,18.948 L21.879,21.407 C22.287,21.538 22.734,21.489 23.105,21.274 C23.477,21.058 23.745,20.692 23.841,20.269 L27.954,2.191 C28.106,1.522 27.874,0.837 27.350,0.403 ZM6.880,14.172 L2.277,13.003 L18.977,5.206 L7.139,14.285 C7.059,14.234 6.972,14.195 6.880,14.172 ZM10.370,20.039 L8.094,15.818 C8.116,15.804 8.137,15.789 8.158,15.773 L21.383,5.632 L11.159,16.614 C10.948,16.841 10.866,17.162 10.944,17.464 C11.021,17.766 11.246,18.006 11.539,18.100 L12.226,18.320 L10.370,20.039 ZM22.162,19.598 L13.435,16.807 L25.824,3.498 L22.162,19.598 Z" class="cls-1"/>
</svg>
